X:210
T:Glorious Things of Thee are Spoken
%%stretchlast false
M:4/4
L:1/4
K:C clef=C1
"^I"[CEGc]3/2 "^ii"[CFGd]/ "^I"[CGce] "^V"[G,GBd] | "^V7¹"[B,DGf] "^I"[CEGe] "^v7"[G,FGd]/ "^V7"[G,FGB]/ "^I"[CEGc] | "^IV²"[CFca] "^I"[CEcg] "^V7¹"[B,Gdf] "^I"[CGce] | "^ii¹"[F,Ad] "^♭vø7"[^F,Ace]/ "^♭v°"[^F,Ac]/ "^V"[G,GBg]2 | "^vi"[A,Ec] "^♭v°¹"[A,^Fc]/ "^II7²"[A,^Fcd]/ "^I²"[G,Gce] "^V"[G,GBd] | "^V7¹"[B,DGf] "^I"[CEGe] "^V7"[G,B,Fd]/ [G,DFB]/ "^I"[CEc] | "^IV"[F,Fca] "^I"[CEcg] "^ii"[DFAf]/ [DFBf]/ "^I"[CGce] | "^ii¹"[F,Ad] "^♭vø7"[^F,Ace]/ "^♭v°"[^F,Ac]/ "^V"[G,DBg]2 | [G,GBd] "^I²"[G,Gce] "^V"[G,GBd]/ [G,DGB]/ [G,B,G] | "^IV"[G,CAf]/ "^V7"[G,DBf]/ "^I²"[G,Ece]/ [G,^Fce]/ "^V"[G,GBd]/ [G,DGB]/ [G,B,G] | "^iii"[E,EGg] "^ii¹"[F,DAf]/ "^V7"[G,DBf]/ "^vi"[A,Cce] [A,Ece]/ [A,Ece]/ | "^II7"[D,Ac^f] "^ii7"[DAcf]/ "^V²"[DGBg]/ "^V"[G,GBg]2 | "^I¹"[EGcc']3/2 "^Imaj7¹"[EGcb]/ "^IV"[Fca] "^I"[CEcg] | "^IV"[F,Fca]3/2 "^I²"[G,Ecg]/ "^vi7"[A,Ecg]/ "^V7¹"[B,DGf]/ "^I"[CGe] | "^V7³"[F,B,Gd] "^iii"[F,B,Ge]/ "^V7³"[F,B,Gf]/ "^I¹"[E,Ccg]/ "^vi²"[E,C^Aa]/ "^IV"[F,CAf]/ "^ii¹"[F,DAd]/ | "^I²"[G,EGc] "^iii¹"[G,FBe]/ "^V7"[G,FBd]/ "^I"[C,Ec]2 |]
